public/figma-home/social-media-icon-square-facebook.svg

<svg preserveAspectRatio="none" width="100%" height="100%" overflow="visible" style="display: block;" viewBox="0 0 11 19" fill="none" xmlns="http://www.w3.org/2000/svg">
<g id="Social Media Icon Square/Facebook">
<path id="Facebook" d="M7.31437 18.395V10.1844H10.2091L10.6424 6.98452H7.31428V4.94155C7.31428 4.01511 7.58446 3.3838 8.97991 3.3838L10.7596 3.38301V0.521087C10.4518 0.482162 9.39527 0.395016 8.16628 0.395016C5.60026 0.395016 3.84352 1.88619 3.84352 4.62474V6.98452H0.941406V10.1844H3.84352V18.3949H7.31437V18.395Z" fill="var(--fill-0, white)"/>
</g>
</svg>

<svg xmlns="http://www.w3.org/2000/svg" fill="none" overflow="visible" preserveAspectRatio="none" style="display:block" viewBox="0 0 11 19"><path fill="var(--fill-0, white)" d="M7.314 18.395v-8.21h2.895l.433-3.2H7.314V4.942c0-.927.27-1.558 1.666-1.558l1.78-.001V.521A25 25 0 0 0 8.166.395c-2.566 0-4.322 1.491-4.322 4.23v2.36H.94v3.2h2.903v8.21z"/></svg>
